!!!!SEGMENT: pl-wtm--a-22-548_gold-artur--malwina.krn
!!!cenid: 19xx:4
!!!COM: Gold, Artur
!!!COM-rismID: pe50044903
!!!CDT: 1897/03/17-1943
!!!CNT: Polish
!!!OTL: Malwina
!!!PDT: 1927
!!!AGN: Secular
!!!YEC: Copyright 2022 Narodowy Instytut Fryderyka Chopina (https://polishscores.org)
!!!YEM: License CC-BY-4.0 (https://creativecommons.org/licenses/by/4.0)
!!!SMS-siglum: PL-Wtm
!!!SMS-shelfmark: A.22.548
!!!SMS-variant:
!!!SMS-altvar:
!!!SMS-shelfwork: W
!!!NIFC-rismSourceID: 1001217204
!!!NIFC-rismChildID: 1001217204
!!!NIFC-islandoraID: pl-wtm:94832
!!!URL-pdf-islandora: https://repozytorium.nifc.pl/islandora/object/pl-wtm%3A94832/datastream/PDF/view
!!!URL-scan: https://polish.musicsources.pl/pl/lokalizacje/galeria/druki-muzyczne/19712/2 @EN{Scan on Polish Music Sources Website} @PL{Skany w portalu Dziedzictwo Muzyki Polskiej w otwartym dostępie}
!!!IIIF:
!!!ONB-nifc:
!!!AIN: 2 piano 1 vox
!!!key: D
**kern	**kern	**dynam	**kern	**text	**text	**text
*part3	*part2	*part2	*part1	*part1	*part1	*part1
*staff3	*staff2	*	*staff1	*staff1	*staff1	*staff1
*I"Fortepian.	*I"Fortepian.	*	*I"Śpiew.	*	*	*
*I'[pf]	*I'[pf]	*	*I'[V]	*	*	*
*ICklav	*ICklav	*	*ICvox	*	*	*
*Ipiano	*Ipiano	*	*Ivox	*	*	*
*clefF4	*clefG2	*	*clefG2	*	*	*
*>[A,A1,A,A2]	*>[A,A1,A,A2]	*>[A,A1,A,A2]	*>[A,A1,A,A2]	*>[A,A1,A,A2]	*>[A,A1,A,A2]	*>[A,A1,A,A2]
*>A	*>A	*>A	*>A	*>A	*>A	*>A
*k[f#c#]	*k[f#c#]	*	*k[f#c#]	*	*	*
*D:	*D:	*	*D:	*	*	*
*M2/2	*M2/2	*	*M2/2	*	*	*
*met(c|)	*met(c|)	*	*met(c|)	*	*	*
!	!	!	!LO:TX:a:B:t=Moderato.	!	!	!
2FFn^/ 2Fn	2B^/ 2d 2g#X 2b	ff	2r	.	.	.
=1	=1	=1	=1	=1	=1	=1
2EE:/ 2BB: 2G#X:	4g#X\ 4dd	.	1r	.	.	.
.	4d/ 4e 4b	.	.	.	.	.
2EE/ 2BB 2E	4g#\ 4dd	.	.	.	.	.
.	4d/ 4e 4b	.	.	.	.	.
=2	=2	=2	=2	=2	=2	=2
2AA/	2f#/	.	1r	.	.	.
2AAA/	2e/	.	.	.	.	.
=3	=3	=3	=3	=3	=3	=3
2DD/ 2AA 2D	4F#/ 4A 4d	.	1r	.	.	.
.	4f#/	.	.	.	.	.
2GG/ 2D 2E	8B-X/L 8d 8g	.	.	.	.	.
.	8a/	.	.	.	.	.
.	8b-X/	.	.	.	.	.
.	8g/J	.	.	.	.	.
=4	=4	=4	=4	=4	=4	=4
4DD:/ 4AA: 4D:	4d/ 4f# 4a 4dd	.	2r	.	.	.
4r	4r	.	.	.	.	.
4DDD^/ 4DD	4dd^\ 4ff# 4aa 4ddd	fz	4r	.	.	.
=||	=||	=||	=||	=||	=||	=||
4r	4f#/	p	4f#/	1. Mal-	2. Ma	3. Co
!LO:TX:b:rj:t=[segno]	!LO:TX:a:rj:t=[segno]	!	!LO:TX:a:rj:t=[segno]	!	!	!
=5	=5	=5	=5	=5	=5	=5
2FF#/ 2F#	4a/	.	4a/	-wi-	płaszcz	wie-
.	4A/ 4d 4a	.	4a/	-na,	fu-	-czór,
2FFn/ 2Fn	4a#X/	.	4a#X/	ach	-trza-	w każ-
.	4d/ 4g#X 4a#	.	4a#/	Mal-	-ny	-dym
=6	=6	=6	=6	=6	=6	=6
2EE/ 2E	4b\	.	4b\	-wi-	z fo-	ra-
.	4d/ 4gn 4b 4dd	.	4dd\	-na	-ki	-zie,
2GG/ 2G	4b\	.	4b\	to	tu	jest
.	4B/ 4d 4g	.	4g/	dziew-	kró-	w Bri-
!!LO:LB:g=original	!	!	!	!	!	!
=7	=7	=7	=7	=7	=7	=7
2AA\ 2A	4f#/	.	4f#/	-1. czy-	-2. ciu-	-3. sto-
.	4c#/ 4g 4a	.	4a/	-na	-tki,	-lu,
2GG/ 2G	4f#/	.	4f#/	jest	tu	czy
.	4A/ 4c# 4e	.	4e/	je-	wy-	w O-
=8	=8	=8	=8	=8	=8	=8
4FF#/ 4F#	4d/	.	4d/	-dy-	-so-	-a-
4r	2F#/ 2A 2d	.	2d/	-na!	-ki.	-zie.
2AAA/ 2AA	.	.	.	.	.	.
.	4f#/	.	4f#/	W niej	A	I
=9	=9	=9	=9	=9	=9	=9
2FF#/ 2F#	4a/	.	4a/	cho-	na	słod-
.	4A/ 4d 4a	.	4a/	-dzą	ra-	-ka
2FFn/ 2Fn	4g#X/	.	4g#X/	za-	-mie-	jest
.	4B/ 4d 4g#	.	4g#/	-ko-	-niu	w smo-
=10	=10	=10	=10	=10	=10	=10
2EE/ 2E	4gn/	.	4gn/	-cha-	ró-	-kin-
.	2B/ 2d 2g	.	2g/	-ni	-ża,	-gu
2EEE/ 2EE	.	.	.	.	.	.
.	4c#/	.	4c#/	Naj-	Czer-	I
=11	=11	=11	=11	=11	=11	=11
2AAA/ 2AA	4b\	.	4b\	-więk-	-wo-	tań-
.	4c#/ 4e 4b	.	4b\	-si	-na,	-czy
2GG/ 2G	4b-X\	.	4b-X\	dżen-	za	na
.	4c#/ 4e 4b-	.	4b-\	-tel-	to	dan-
=12	=12	=12	=12	=12	=12	=12
2FF#/ 2F#	4a/	.	4a/	-ma-	du-	-cin-
.	2A/ 2d 2a	.	2a/	-ni	-ża	-gu
2AAA/ 2AA	.	.	.	.	.	.
.	4f#/	.	4f#/	Sam	I	Czerl-
!!LO:LB:g=original	!	!	!	!	!	!
=13	=13	=13	=13	=13	=13	=13
2FF#/ 2F#	4a/	.	4a/	1. Hi-	2. ro-	-3. sto-
.	4G/ 4d 4a	.	4a/	-pek	-bi	-na
2FFn/ 2Fn	4a#X/	.	4a#X/	na-	ma-	i
.	4d/ 4g#X 4a#	.	4a#/	-wet	-łe	o-
=14	=14	=14	=14	=14	=14	=14
2EE/ 2E	4b\	.	4b\	gi-	krocz-	-ber-
.	4d/ 4gn 4b 4dd	.	4dd\	-ni,	-ki	-ka,
2GG/ 2G	4b\	.	4b\	Kie-	I	jak
.	4B/ 4d 4g	.	4g/	-dy	po-	wro-
=15	=15	=15	=15	=15	=15	=15
2AAA/ 2AA	4f#/	.	4f#/	mó-	-pra-	-dzo-
.	4c#/ 4g 4a	.	4a/	-wi	-wia	-na
2AAA#X/ 2AA#X	4f#/	.	4f#/	o	śli-	for-
.	4G/ 4c# 4e	.	4e/	Mal-	-ną	-ten-
=16	=16	=16	=16	=16	=16	=16
2BBB/ 2BB	4d/	.	4d/	-wi-	locz-	-cer-
.	2F#/ 2B 2d	.	2d/	-nie!	-ki.	-ka!
2DD/ 2D	.	.	.	.	.	.
.	4A/ 4d 4f#	.	4f#/	Ta	Wy	od-
=17	=17	=17	=17	=17	=17	=17
2EE/ 2E	4e/	.	4e/	gra-	cią-	-ra-
.	4G#X/ 4d 4f#	.	4f#/	-cja	-ga	-zu
2DD/ 2D	4e/	.	4e/	i	róż	sły-
.	4G#/ 4B 4f#	.	4f#/	ten	i	-chać
=18	=18	=18	=18	=18	=18	=18
2CC#/ 2C#	4g#X/	.	4g#X/	sznyt!	w mig	szmer,
.	4A/ 4c# 4f#	.	4f#/	Wo-	się	że
2AAA#X/ 2AA#X	4g#/	.	4g#/	-gó-	na-	to
.	4c#/ 4e 4f#	.	4f#/	-le	-ma-	jest
!!LO:LB:g=original	!	!	!	!	!	!
=19	=19	=19	=19	=19	=19	=19
2BBB/ 2BB	4e/	.	4e/	1. wszyst-	-2. lu-	3. pan-
.	4f#/ 4g#X 4dd	.	4dd\	-ko	-je,	-na
2EE/ 2E	4e/ 4g# 4cc#	.	4cc#\	ca-	jak	z lep-
.	4d/ 4e 4g# 4b	.	4b\	-ły	Van	-szych
=20	=20	=20	=20	=20	=20	=20
4AA\ 4A	2.c#/ 2.e 2.a	.	2.a/	byt!	Dyk!	sfer!
4GGn/ 4Gn	.	.	.	.	.	.
4FF#/ 4F#	.	.	.	.	.	.
!	!LO:TUP:a:problem:klamra łukowa	!	!LO:TX:a:t=Refrain.	!	!	!
4EE/ 4E	12A/L	.	4A/	Dziew-	Dziew-	Dziew-
.	12B/	.	.	.	.	.
.	12A/J	.	.	.	.	.
=21!|:	=21!|:	=21!|:	=21!|:	=21!|:	=21!|:	=21!|:
4D\	4d/	???	4d/	-czy-	-czy-	-czy-
4E\	4e/	.	4e/	-na	-na	-na
4F#\	4f#/	.	4f#/	z bu-	z bu-	z bu-
4G\	4g/	.	4g/	-zią,	-zią,	-zią,
=22	=22	=22	=22	=22	=22	=22
4A\	4a/	.	4a/	jak	jak	jak
4r	4r	.	4r	.	.	.
2GG:\ 2D: 2B:	2d:/ 2g: 2dd:	.	2dd\	ma-	ma-	ma-
=23	=23	=23	=23	=23	=23	=23
*	*^	*	*	*	*	*
4DD/ 4D	4B/ 4d 4f# 4b	4ryy	.	4b\	-li-	-li-	-li-
4r	[<2.A/ [2.a	4d\ 4f#	.	[2.a/	-na	-na	-na
4AAA/ 4AA	.	4r	.	.	.	.	.
4r	.	4d\ 4f#	.	.	.	.	.
*	*v	*v	*	*	*	*	*
=24	=24	=24	=24	=24	=24	=24
4DD/ 4D	4A/] 4a]	.	4a/]	.	.	.
4r	4r	.	4r	.	.	.
2DD#X^/ 2D#X	2cn^/ 2f# 2b	.	2b\	Mal-	Mal-	Mal-
=25	=25	=25	=25	=25	=25	=25
*	*^	*	*	*	*	*
4EE/ 4E	4a/	4r	.	4a/	-wi-	-wi-	-wi-
4r	[2.g/	4A\ 4c#X 4g	.	[2.g/	-na!	-na!	-na!
4AAA/ 4AA	.	4r	.	.	.	.	.
4r	.	4A\ 4c# 4g	.	.	.	.	.
*	*v	*v	*	*	*	*	*
!!LO:PB:g=original	!	!	!	!	!	!
=26	=26	=26	=26	=26	=26	=26
4EE/ 4E	4g/]	.	4g/]	1.	2.	3.
4r	4r	.	4r	.	.	.
2AAA/ 2AA	2c#/ 2g 2a	.	2a/	Mal-	Mal-	Mal-
=27	=27	=27	=27	=27	=27	=27
*	*^	*	*	*	*	*
4DD/ 4D	4g/	4B\ 4d	.	4g/	-wi-	-wi-	-wi-
4r	[2.f#/	4A\ 4d	.	[2.f#/	-na!	-na!	-na!
4AAA/ 4AA	.	4rg	.	.	.	.	.
4r	.	4A\ 4d	.	.	.	.	.
*	*v	*v	*	*	*	*	*
=28	=28	=28	=28	=28	=28	=28
4DD/ 4D	2.f#/]	.	2f#/]	.	.	.
4CC#/ 4C#	.	.	.	.	.	.
4BBB/ 4BB	.	.	4r	.	.	.
4AAA/ 4AA	4A/	.	4A/	To	Do	Jak
=29	=29	=29	=29	=29	=29	=29
4D\	4d/	.	4d/	u-	fil-	o-
4E\	4e/	.	4e/	-ro-	-mu	-na
4F#\	4f#/	.	4f#/	-dzo-	o-	w ta-
4G\	4g/	.	4g/	-na	-na	-ńcu
=30	=30	=30	=30	=30	=30	=30
4A\	4a/	.	4a/	jest	jest-	się
4r	4r	.	4r	.	.	.
2GG:\ 2D: 2B:	2d:/ 2g: 2dd:	.	2dd\	hra-	-je-	wy-
=31	=31	=31	=31	=31	=31	=31
*	*^	*	*	*	*	*
4DD/ 4D	4B/ 4b	4ryy	.	4b\	-bi-	-dy-	-gi-
4r	[<2.A/ [2.a	4d\ 4f#	.	[2.a/	-na	-na	-na
4AAA/ 4AA	.	4r	.	.	.	.	.
4r	.	4d\ 4f#	.	.	.	.	.
*	*v	*v	*	*	*	*	*
=32	=32	=32	=32	=32	=32	=32
4DD/ 4D	4A/] 4a]	.	4a/]	.	.	.
4r	4r	.	4r	.	.	.
2FF#/ 2F#	2B/ 2f# 2b	.	2b\	Mal-	Mal-	Mal-
=33	=33	=33	=33	=33	=33	=33
*	*^	*	*	*	*	*
2EE#X/ 2E#X	4a/	4re	.	4a/	-wi-	-wi-	-wi-
.	[2.g#X/	4B\ 4c#	.	[2.g#X/	-na!	-na!	-na!
2CC#/ 2C#	.	4re	.	.	.	.	.
.	.	4B\ 4c#	.	.	.	.	.
!!LO:LB:g=original	!	!	!	!	!	!	!
=34	=34	=34	=34	=34	=34	=34	=34
2DD#X/ 2D#X	2g#/]	4re	.	2g#/]	1.	2.	3.
.	.	4B\ 4c#	.	.	.	.	.
2EE#X/ 2E#X	2c#/ 2g#X 2b 2cc#	2ryy	.	2cc#\	Mal-	Mal-	Mal-
=35	=35	=35	=35	=35	=35	=35	=35
4FF#/ 4F#	4d/ 4b	2.ryy	.	4b\	-wi-	-wi-	-wi-
4r	[>2.c#/ [2.a	.	.	[2.a/	-na!	-na!	-na!
4CC#/ 4C#	.	.	.	.	.	.	.
4r	.	4A\ 4c# 4f#	.	.	.	.	.
=36	=36	=36	=36	=36	=36	=36	=36
4FF#/	4c#/] 4a]	4ryy	.	4a/]	.	.	.
4D\	4f#/	2d\	.	4f#/	Jak	Fo-	Gdy
4E\	4g/	.	.	4g/	o-	-to-	o-
4F#\	4a/	4d\	.	4a/	-na	-ge-	-na
=37	=37	=37	=37	=37	=37	=37	=37
2GG/ 2G	2b/	4r	.	2b\	mó-	-ni-	so-
.	.	4d\ 4g	.	.	.	.	.
2BB\ 2B	2dd/	4r	.	2dd\	-wi:	-czne	-lo
.	.	4d\ 4g	.	.	.	.	.
=38	=38	=38	=38	=38	=38	=38	=38
2GG#X/ 2G#X	2cc#/	4r	.	2cc#\	„Ta	ma	tań-
.	.	4c#\ 4e#X	.	.	.	.	.
2EE#X/ 2E#X	2b/	4r	.	2b\	be-	sto-	-czy
.	.	4c#\ 4g#X	.	.	.	.	.
=39	=39	=39	=39	=39	=39	=39	=39
4FF#/ 4F#	4cc#/	4c#\ 4f# 4a	.	4cc#\	-lot-	-sun-	blu-
4r	[2.a/	4c#\ 4f#	.	[2.a/	-ka	-ki	-sa
4CC#/ 4C#	.	4r	.	.	.	.	.
4r	.	4c#\ 4f#	.	.	.	.	.
=40	=40	=40	=40	=40	=40	=40	=40
4FF#/ 4F#	4a/]	4ryy	.	4a/]	.	.	.
4A\	4cc#/	2c#\ 2f#	.	4cc#\	jest	i	Su-
4G#X\	4b/	.	.	4b\	ta-	ma	-kien-
4F#\	4a/	4c#\ 4f#	.	4a/	-ka	wa-	-ka
!!LO:LB:g=original	!	!	!	!	!	!	!
=41	=41	=41	=41	=41	=41	=41	=41
4EE#X/ 4E#X	4b/	4re	.	4b\	1. słod-	-2. run-	3. ku-
4r	[2.g#X/	4B\ 4c#	.	[2.g#X/	-ka!	-ki,	-sa,
4CC#/ 4C#	.	4re	.	.	.	.	.
4r	.	4B\ 4c#	.	.	.	.	.
*	*v	*v	*	*	*	*	*
=42	=42	=42	=42	=42	=42	=42
4EE#X/ 4E#X	4g#/]	.	4g#/]	.	.	.
4CC#/ 4C#	4d/ 4b	.	4b\	I	Że	Że
4DD#X/ 4D#X	4cn/ 4a	.	4a/	mó-	aż	wi-
4EE#/ 4E#	4B/ 4g#X	.	4g#X/	-wi	Smo-	-dać
=43	=43	=43	=43	=43	=43	=43
*	*^	*	*	*	*	*
2FF#/ 2F#	4a/	4re	.	4a/	„Mie-	-sar-	u-
.	2.f#/	4A\ 4c#X	.	2.f#/	-ciuś,	-ska	-da
2DD#X/ 2D#X	.	4re	.	.	.	.	.
.	.	4A\ 4c#X	.	.	.	.	.
=44	=44	=44	=44	=44	=44	=44	=44
4EE/ 4E	4g/	4r	.	4g/	Dzie-	Par-	Cu-
4r	2.e/	2B-X\ 2d	.	2.e/	-ciuś!”	-ska!	-da!
4AAA/ 4AA	.	.	.	.	.	.	.
4r	.	4A\ 4c#	.	.	.	.	.
*	*v	*v	*	*	*	*	*
=45	=45	=45	=45	=45	=45	=45
4D\	4d/	.	4d/	1.-3. Dziew-	.	.
4E\	4e/	.	4e/	-czę	.	.
4F#\	4f#/	.	4f#/	z bu-	.	.
4G\	4g/	.	4g/	-zią	.	.
=46	=46	=46	=46	=46	=46	=46
4A\	4a/	.	4a/	jak	.	.
4r	4r	.	4r	.	.	.
2GG:\ 2D: 2B:	2d:/ 2g: 2dd:	.	2dd\	ma-	.	.
=47	=47	=47	=47	=47	=47	=47
*	*^	*	*	*	*	*
4DD/ 4D	4B/ 4d 4f# 4b	4ryy	.	4b\	-li-	.	.
4r	[<2.A/ [2.a	4d\ 4f#	.	[2.a/	-na,	.	.
4AAA/ 4AA	.	4r	.	.	.	.	.
4r	.	4d\ 4f#	.	.	.	.	.
*	*v	*v	*	*	*	*	*
!!LO:LB:g=original	!	!	!	!	!	!
=48	=48	=48	=48	=48	=48	=48
4DD/ 4D	4A/] 4a]	.	4a/]	.	.	.
4r	4r	.	4r	.	.	.
2FFn^/ 2Fn	2B^/ 2d 2g#X 2b	.	2b\	Mal-	.	.
=49	=49	=49	=49	=49	=49	=49
2EE:/ 2BB: 2G#X:	4g#X\ 4dd	.	4dd\	-wi-	.	.
.	4d/ 4e 4b	.	4b\	-na	.	.
2EE/ 2BB 2E	4g#\ 4dd	.	4dd\	to	.	.
.	4d/ 4e 4b	.	4b\	jest	.	.
=50	=50	=50	=50	=50	=50	=50
*	*^	*	*	*	*	*
2AA/	2f#/	4re	.	2f#/	typ	.	.
.	.	4Gn\ 4B 4d	.	.	.	.	.
2AAA/	2e/	4re	.	2e/	tip	.	.
.	.	4G\ 4A 4c#	.	.	.	.	.
*	*v	*v	*	*	*	*	*
=51	=51	=51	=51	=51	=51	=51
*>A1	*>A1	*>A1	*>A1	*>A1	*>A1	*>A1
2DD/ 2D	4F#/ 4A 4d	<	2.d/	top!	.	.
.	4f#/	.	.	.	.	.
4FF#/ 4F#	4d/ 4a	.	.	.	.	.
4FFn/ 4Fn	4g#X\ 4b 4dd	[[	4r	.	.	.
=52	=52	=52	=52	=52	=52	=52
*	*^	*	*	*	*	*
2EE/ 2E	8cc#/L	2gn\ 2a	.	2r	.	.	.
.	8ee/J	.	.	.	.	.	.
.	4cc#/	.	.	.	.	.	.
4AA/ 4E	4d/ 4g 4b	2ryy	.	4r	.	.	.
4A\	4c#/ 4g 4a	.	.	4A/	Dziew	.	.
*	*v	*v	*	*	*	*	*
=53:|!	=53:|!	=53:|!	=53:|!	=53:|!	=53:|!	=53:|!
*>A2	*>A2	*>A2	*>A2	*>A2	*>A2	*>A2
2DD/ 2AA 2D	4F#/ 4A 4d	.	2.d/	top!	.	.
.	4f#/	.	.	.	.	.
2GG/ 2D 2E	8B-X/L 8d 8g	.	.	.	.	.
.	8a/	.	.	.	.	.
.	8b-X/	.	4r	.	.	.
.	8g/J	.	.	.	.	.
=54	=54	=54	=54	=54	=54	=54
4DD:/ 4AA: 4F#:	4d/ 4f# 4a 4dd	.	2r	.	.	.
4r	4r	.	.	.	.	.
!LO:TX:b:t=D.S.	!	!	!	!	!	!
4DDD^/ 4DD	4dd^\ 4ff# 4aa 4ddd	fz	4r	.	.	.
!LO:TX:b:rj:t=[segno]	!LO:TX:a:rj:t=[segno]	!	!LO:TX:a:rj:t=[segno]	!	!	!
==	==	==	==	==	==	==
*-	*-	*-	*-	*-	*-	*-
!!!system-decoration: s1{(s2,s3)}
!!!RDF**kern: > = above
!!!RDF**kern: < = below
!!!ENC: Berenika Jozajtis
!!!END: 2023-08-23
!!!ENC: Jan Barakat
!!!END: 2023-09-16
